!!!!SEGMENT: pl-wru--50044-muz--001-024_buchner-philipp-friedrich--plectrum-musicum-sonata-xxiv.krn
!!!cenid: 16xx:1825
!!!COM: Buchner, Philipp Friedrich
!!!COM-rismID: pe30013776
!!!CDT: 1614/09/10-1669/03/23
!!!CNT: German
!!!GTL: Plectrum musicum
!!!OTL: Sonata XXIV
!!!OMV: 024
!!!PDT: 1662
!!!AGN: Secular; Sonata
!!!YEC: Copyright 2022 Narodowy Instytut Fryderyka Chopina (https://polishscores.org)
!!!YEM: License CC-BY-4.0 (https://creativecommons.org/licenses/by/4.0)
!!!SMS-siglum: PL-WRu
!!!SMS-shelfmark: 50044 Muz.
!!!SMS-shelfwork: 001-024 G
!!!SMS-variant:
!!!SMS-altvar:
!!!NIFC-rismSourceID: 990007465
!!!NIFC-rismChildID: 990007465
!!!NIFC-islandoraID: none
!!!URL-pdf-islandora:
!!!URL-scan: https://www.bibliotekacyfrowa.pl/dlibra/doccontent?id=116 @EN{Scan on Digital Library of University of Wroclaw} @PL{Skany w portalu Biblioteka Cyfrowa Uniwersytetu Wrocławskiego}
!!!IIIF:
!!!ONB-nifc: UWAGA: Violino I: s. 19, Violino II: s. 33, Viola da braccio: s. 40, Viola da gamba: s. 50, Fagotto: s. 63, Bassus: s. 78, Bassus continuus: s. 93
!!!AIN: 1 fagot 2 violn 1 violt
!!!key: B-
**kern	**fba	**kern	**fba	**kern	**kern	**kern	**kern	**kern
*part7	*	*part6	*	*part5	*part4	*part3	*part2	*part1
*staff7	*	*staff6	*	*staff5	*staff4	*staff3	*staff2	*staff1
*I"BASSUS CONTINUUS	*	*I"BASSUS	*	*I"VIOLA DA GAMBA.	*I"VIOLA DA BRACCIO.	*I"VIOLINO II.	*I"VIOLINO I.	*I"FAGOTTO.
*I'bc	*	*I'b	*	*I'vla da gamba	*I'vla da braccio	*I'vl 2	*I'vl 1	*I'fag
*	*	*	*	*ICstr	*ICstr	*ICstr	*ICstr	*ICww
*	*	*	*	*Iviolt	*	*Ivioln	*Ivioln	*Ifagot
*IGcont	*	*IGcont	*	*	*	*	*	*
*clefF4	*	*clefF4	*	*clefC4	*clefC3	*clefG2	*clefG2	*clefF4
*k[b-]	*	*k[b-]	*	*k[b-]	*k[b-]	*k[b-]	*k[b-]	*k[b-]
*B-:	*	*B-:	*	*B-:	*B-:	*B-:	*B-:	*B-:
*M3/2	*	*M3/2	*	*M3/2	*M3/2	*M3/2	*M3/2	*M3/2
=1-	=1-	=1-	=1-	=1-	=1-	=1-	=1-	=1-
!LO:TX:a:t=Sonata XXIV.	!	!LO:TX:a:t=Sonata XXIV.	!	!LO:TX:a:t=Sonata XXIV.	!LO:TX:a:t=Sonata XXIV.	!LO:TX:a:t=Sonata XXIV.	!LO:TX:a:t=Sonata XXIV.	!
!LO:TX:b:t=Adagio.	!	!LO:TX:b:t=Adagio.	!	!LO:TX:b:t=Adagio.	!LO:TX:b:t=Adagio.	!LO:TX:b:t=Adagio.	!LO:TX:b:t=Adagio.	!LO:TX:b:t=Adagio.
1.BB-	.	1.BB-	.	2B-\	2f\	2dd\	2ff\	2BB-/
.	.	.	.	2B-\	2.f\	2dd\	2bb-\	2BB-/
.	.	.	.	2B-\	.	2dd\	2ff\	2BB-/
.	.	.	.	.	4e\	.	.	.
=2-	=2-	=2-	=2-	=2-	=2-	=2-	=2-	=2-
2.C/	-	2.C/	-	1G	2.g\	1cc	2.ee-X\	2.C/
4D/	.	4D/	.	.	4f\	.	4ff\	4D/
!LO:TX:t=P:problem:kreska pseudotaktowa	!	!LO:TX:t=P:problem:kreska pseudotaktowa	!	!	!	!	!LO:TX:t=P:problem:kreska pseudotaktowa	!
2E-X\	6	2E-X\	6	2G/	4e-X\	2cc\	2gg\	2E-X\
!	!	!	!	!	!LO:TX:t=P:problem:kreska pseudotaktowa	!	!	!
.	.	.	.	.	4d\	.	.	.
=3-	=3-	=3-	=3-	=3-	=3-	=3-	=3-	=3-
2F\	5	2F\	5	2A/	2c/	2cc\	2ff\	2F\
2G\	.	2G\	.	2B-\	2g\	2b-/	2dd\	2G\
!	!	!	!	!	!	!	!	!LO:TX:t=P:problem:kreska pseudotaktowa
2E-X\	6	2E-X\	6	2G/	2g\	2cc\	2ee-X\	2E-X\
=4-	=4-	=4-	=4-	=4-	=4-	=4-	=4-	=4-
2.D/	.	2.D/	.	1A	2.f\	1.dd	1ff	2.D/
4C/	.	4C/	.	.	4e-X\	.	.	4C/
!LO:TX:t=P:problem:kreska pseudotaktowa	!	!LO:TX:t=P:problem:kreska pseudotaktowa	!	!	!	!	!	!
2BB-/	6	2BB-/	6	2B-\	2d\	.	2gg\	2BB-/
=5-	=5-	=5-	=5-	=5-	=5-	=5-	=5-	=5-
2AA/	6	2AA/	6	2c\	2f\	2cc\	2aa\	2AA/
2BB-/	6 5	2BB-/	6 5	4B-\	2f\	2dd\	2.gg\	2BB-/
.	.	.	.	4A/	.	.	.	.
!	!	!	!	!LO:TX:t=P:problem:kreska pseudotaktowa	!	!	!	!
2C/	.	2C/	.	2G/	2eny\	2cc\	.	2C/
!	!	!	!	!	!	!	!LO:TX:t=P:problem:kreska pseudotaktowa	!
.	.	.	.	.	.	.	4gg\	.
=6-	=6-	=6-	=6-	=6-	=6-	=6-	=6-	=6-
2.FF/	.	2.FF/	.	2.A/	1f	1cc	1ff	2.FF/
4GG/	.	4GG/	.	4B-\	.	.	.	4GG/
!LO:TX:t=P:problem:kreska pseudotaktowa	!	!LO:TX:t=P:problem:kreska pseudotaktowa	!	!	!	!	!	!LO:TX:t=P:problem:kreska pseudotaktowa
2AA/	6	2AA/	6	2c\	2f\	2cc\	2ff\	2AA/
=7-	=7-	=7-	=7-	=7-	=7-	=7-	=7-	=7-
!	!	!	!	!	!	!LO:TX:t=P:problem:kreska pseudotaktowa	!	!
2.BB-/	.	2.BB-/	.	4d\	1.f	1.b-	2.dd\	2.BB-/
.	.	.	.	4f\	.	.	.	.
.	.	.	.	4d\	.	.	.	.
4C/	.	4C/	.	4c\	.	.	4ee-X\	4C/
!	!	!	!	!	!	!	!LO:TX:t=P:problem:kreska pseudotaktowa	!
2D/	6	2D/	6	4B-\	.	.	2ff\	2D/
.	.	.	.	4A/	.	.	.	.
=8-	=8-	=8-	=8-	=8-	=8-	=8-	=8-	=8-
2E-X\	6 5	2E-X\	6 5	2G/	2g\	1b-	2ee-X\	2E-X\
!LO:TX:t=P:problem:kreska pseudotaktowa	!	!	!	!	!	!	!	!
!	!	!LO:TX:t=P:problem:kreska pseudotaktowa	!	!	!	!	!	!
*col	*	*col	*	*col	*	*	*	*col*
1F	.	1F	.	1c	2.f\	.	2.cc\	1F
.	.	.	.	.	.	2a/	.	.
.	.	.	.	.	4f\	.	4cc\	.
*Xcol	*	*Xcol	*	*Xcol	*	*	*	*Xcol
=9-	=9-	=9-	=9-	=9-	=9-	=9-	=9-	=9-
1BB-	.	1BB-	.	1B-	1f	1b-	1dd	1BB-
!LO:TX:t=P:problem:kreska pseudotaktowa	!	!LO:TX:t=P:problem:kreska pseudotaktowa	!	!LO:TX:t=P:problem:kreska pseudotaktowa	!LO:TX:t=P:problem:kreska pseudotaktowa	!LO:TX:t=P:problem:kreska pseudotaktowa	!LO:TX:t=P:problem:kreska pseudotaktowa	!
2BB-/	-	2BB-/	-	2B-\	2d\	2dd\	2ff\	2BB-/
=10-	=10-	=10-	=10-	=10-	=10-	=10-	=10-	=10-
2C/	6	2C/	6	2G/	2e-X\	2cc\	2ee-X\	2C/
2r	.	2r	.	2r	2r	2r	2r	2r
!LO:TX:t=P:problem:kreska pseudotaktowa	!	!LO:TX:t=P:problem:kreska pseudotaktowa	!	!LO:TX:t=P:problem:kreska pseudotaktowa	!LO:TX:t=P:problem:kreska pseudotaktowa	!LO:TX:t=P:problem:kreska pseudotaktowa	!LO:TX:t=P:problem:kreska pseudotaktowa	!LO:TX:t=P:problem:kreska pseudotaktowa
2D/	6 5	2D/	6 5	2B-\	2f\	2b-/	2dd\	2D/
=11-	=11-	=11-	=11-	=11-	=11-	=11-	=11-	=11-
2Eny\	5	2Eny\	5	2G/	2g\	2b-/	2cc\	2Eny\
2r	.	2r	.	2r	2r	2r	2r	2r
!LO:TX:t=P:problem:kreska pseudotaktowa	!	!LO:TX:t=P:problem:kreska pseudotaktowa	!	!LO:TX:t=P:problem:kreska pseudotaktowa	!	!LO:TX:t=P:problem:kreska pseudotaktowa	!	!LO:TX:t=P:problem:kreska pseudotaktowa
2F\	.	2F\	.	2A/	2f\	2a/	2cc\	2F\
*	*	*	*	*	*custos:d	*	*custos:b-	*
!	!	!	!	!	!LO:LB:g=original	!	!LO:LB:g=original	!
=12-	=12-	=12-	=12-	=12-	=12-	=12-	=12-	=12-
2G\	.	2G\	.	2B-\	2d\	2g/	2b-/	2G\
2r	.	2r	.	2r	2r	2r	2r	2r
!LO:TX:t=P:problem:kreska pseudotaktowa	!	!LO:TX:t=P:problem:kreska pseudotaktowa	!	!	!	!LO:TX:t=P:problem:kreska pseudotaktowa	!LO:TX:t=P:problem:kreska pseudotaktowa	!
2A\	6	2A\	6	2c\	2f\	2f/	2a/	2A\
=13-	=13-	=13-	=13-	=13-	=13-	=13-	=13-	=13-
1B-	.	1B-	.	1d	1f	2d/	2.f/	1B-
.	.	.	.	.	.	2b-/	.	.
.	.	.	.	.	.	.	4g/	.
2A\	.	2A\	.	2c\	2f\	2cc\	2a/	2A\
*custos:G	*	*custos:G	*	*custos:B-	*	*	*	*custos:G
!LO:LB:g=original	!	!LO:LB:g=original	!	!LO:LB:g=original	!	!	!	!LO:LB:g=original
=14-	=14-	=14-	=14-	=14-	=14-	=14-	=14-	=14-
2G\	.	2G\	.	2B-\	1d	1dd	1b-	2G\
2F\	.	2F\	.	2A/	.	.	.	2F\
2E-X\	6	2E-X\	6	4G/	2g\	2cc\	2cc\	2E-X\
.	.	.	.	4A/	.	.	.	.
=15-	=15-	=15-	=15-	=15-	=15-	=15-	=15-	=15-
2D/	6	2D/	6	2.B-\	2f\	2b-/	2dd\	2D/
*col	*	*col	*	*	*	*col	*col	*col
1C	- 7:6	1C	- 7:6	.	4e-X\	1cc	1ee-X	1C
.	.	.	.	4B-\	4d\	.	.	.
.	.	.	.	2A/	2c/	.	.	.
*Xcol	*	*Xcol	*	*	*	*Xcol	*Xcol	*Xcol
=16-	=16-	=16-	=16-	=16-	=16-	=16-	=16-	=16-
!LO:TX:t=P:problem:kreska pseudotaktowa	!	!LO:TX:t=P:problem:kreska pseudotaktowa	!	!LO:TX:t=P:problem:kreska pseudotaktowa	!LO:TX:t=P:problem:kreska pseudotaktowa	!	!LO:TX:t=P:problem:kreska pseudotaktowa	!LO:TX:t=P:problem:kreska pseudotaktowa
1.BB-	.	1.BB-	.	1.B-	1.d	1.f	1.dd	1.BB-
*	*	*	*	*	*	*custos:dd	*	*
!	!	!	!	!	!	!LO:LB:g=original	!	!
=17-	=17-	=17-	=17-	=17-	=17-	=17-	=17-	=17-
2F\	.	2F\	.	4A/	1.r	0.r	0.r	4F\
.	.	.	.	4A/	.	.	.	4F\
4G\	.	4G\	.	4B-\	.	.	.	4G\
4A\	.	4A\	.	4c\	.	.	.	4A\
4B-\	.	4B-\	.	4d\	.	.	.	4B-\
!LO:TX:t=P:problem:kreska pseudotaktowa	!	!LO:TX:t=P:problem:kreska pseudotaktowa	!	!	!	!	!	!
4A\	.	4A\	.	4c\	.	.	.	4A\
=18-	=18-	=18-	=18-	=18-	=18-	=18-	=18-	=18-
4G\	.	4G\	.	4B-\	4d\	.	.	4G\
4F\	6	4F\	6	4A/	4d\	.	.	4F\
4E-X\	.	4E-X\	.	4G/	4e-X\	.	.	4E-X\
4D/	.	4D/	.	4F/	4f\	.	.	4D/
!LO:TX:t=P:problem:kreska pseudotaktowa	!	!LO:TX:t=P:problem:kreska pseudotaktowa	!	!	!	!	!	!
2C/	- 5:6	2C/	- 5:6	2E-X/	4g\	.	.	2C/
.	.	.	.	.	4a\	.	.	.
=19-	=19-	=19-	=19-	=19-	=19-	=19-	=19-	=19-
1.BB-	5:6	1.BB-	5:6	1D	1b-	4dd\	4ff\	1BB-
.	.	.	.	.	.	4dd\	4ff\	.
.	.	.	.	.	.	4ee-X\	4gg\	.
.	.	.	.	.	.	4ff\	4aa\	.
.	.	.	.	2D/	2d\	4gg\	4bb-\	2BB-/
.	.	.	.	.	.	4ff\	4aa\	.
=20-	=20-	=20-	=20-	=20-	=20-	=20-	=20-	=20-
1.C	-	1.C	-	1G	1e-X	4ee-X\	4gg\	1.C
.	.	.	.	.	.	4dd\	4ff\	.
.	.	.	.	.	.	4cc\	4ee-X\	.
.	.	.	.	.	.	4b-/	4dd\	.
!	!	!	!	!LO:TX:t=P:problem:kreska pseudotaktowa	!	!	!	!
.	.	.	.	2G/	2e-\	2a/	2cc\	.
=21-	=21-	=21-	=21-	=21-	=21-	=21-	=21-	=21-
1.D	6:5 4#r	1.D	6:5 4#r	4d\	1.d	1g	2b-/	1.D
.	.	.	.	4B-\	.	.	.	.
.	.	.	.	4d\	.	.	2.a/	.
.	.	.	.	8c\	.	.	.	.
.	.	.	.	8B-\	.	.	.	.
.	.	.	.	4A/	.	2f#X/	.	.
.	.	.	.	4A/	.	.	4b-/	.
=22-	=22-	=22-	=22-	=22-	=22-	=22-	=22-	=22-
1.GG	5:6:5	1.GG	5:6:5	1B-	4d\	1g	1g	1.GG
.	.	.	.	.	4d\	.	.	.
.	.	.	.	.	4e-X\	.	.	.
.	.	.	.	.	4f\	.	.	.
!	!	!	!	!LO:TX:t=P:problem:kreska pseudotaktowa	!	!LO:TX:t=P:problem:kreska pseudotaktowa	!LO:TX:t=P:problem:kreska pseudotaktowa	!
.	.	.	.	2r	4g\	2r	2r	.
.	.	.	.	.	4f\	.	.	.
*	*	*	*	*	*custos:e	*	*	*
!	!	!	!	!	!LO:LB:g=original	!	!	!
=23-	=23-	=23-	=23-	=23-	=23-	=23-	=23-	=23-
2G\	6	2G\	6	4G/	4eny\	0.r	0.r	1.r
.	.	.	.	4G/	4d\	.	.	.
4A\	.	4A\	.	4A/	4c/	.	.	.
4B-\	.	4B-\	.	4B-\	4d\	.	.	.
4c\	-	4c\	-	4c\	4e-X\	.	.	.
!LO:TX:t=P:problem:kreska pseudotaktowa	!	!LO:TX:t=P:problem:kreska pseudotaktowa	!	!	!	!	!	!
4B-\	.	4B-\	.	4B-\	4d\	.	.	.
=24-	=24-	=24-	=24-	=24-	=24-	=24-	=24-	=24-
4C/	6	4C/	6	4A/	2c/	.	.	4C/
4C/	5	4C/	5	4G/	.	.	.	4C/
4D/	.	4D/	.	4F/	2B-/	.	.	4D/
*	*	*	*	*custos:G	*	*	*	*
!	!	!	!	!LO:LB:g=original	!	!	!	!
4Eny\	.	4Eny\	.	4G/	.	.	.	4Eny\
4F\	.	4F\	.	2.A/	4A/	.	.	4F\
!	!	!LO:SIC:s=4E-\	!	!	!	!	!	!
!LO:TX:t=P:problem:kreska pseudotaktowa	!	!LO:TX:t=P:problem:kreska pseudotaktowa	!	!	!LO:TX:t=P:problem:kreska pseudotaktowa	!	!	!LO:TX:t=P:problem:kreska pseudotaktowa
4E\	.	4E\	.	.	4c/	.	.	4E-X\
=25-	=25-	=25-	=25-	=25-	=25-	=25-	=25-	=25-
4D/	.	4D/	.	.	2.d\	4a/	1.r	4D/
4C/	6	4C/	6	4A/	.	4a/	.	4C/
4BB-/	6	4BB-/	6	4G/	.	4b-/	.	4BB-/
4AA/	.	4AA/	.	4A/	4c/	4cc\	.	4AA/
2GG/	.	2GG/	.	4B-\	4B-/	4dd\	.	2GG/
!	!	!	!	!LO:TX:t=P:problem:kreska pseudotaktowa	!	!LO:TX:t=P:problem:kreska pseudotaktowa	!	!
.	.	.	.	4c\	4A/	4cc\	.	.
*custos:G	*	*custos:G	*	*	*	*	*	*custos:G
!LO:LB:g=original	!	!LO:LB:g=original	!	!	!	!	!	!LO:LB:g=original
=26-	=26-	=26-	=26-	=26-	=26-	=26-	=26-	=26-
4G\	.	4G\	.	2d\	2G/	4b-/	2r	4G\
4F\	.	4F\	.	.	.	4a/	.	4F\
4E-X\	.	4E-X\	.	2.e-X\	2g\	4g/	2r	4E-X\
4D/	.	4D/	.	.	.	4fny/	.	4D/
!LO:TX:t=P:problem:kreska pseudotaktowa	!	!LO:TX:t=P:problem:kreska pseudotaktowa	!	!	!	!LO:TX:t=P:problem:kreska pseudotaktowa	!	!
2C/	-	2C/	-	.	2g\	2e-X/	4gg\	2C/
!	!	!	!	!	!	!	!LO:TX:t=P:problem:kreska pseudotaktowa	!
.	.	.	.	4d\	.	.	4gg\	.
=27-	=27-	=27-	=27-	=27-	=27-	=27-	=27-	=27-
*	*	*	*	*	*col	*	*	*
4c\	#	4c\	#	1c	1eny	2r	4aa\	4c\
4B-\	.	4B-\	.	.	.	.	4bb-\	4B-\
4A\	.	4A\	.	.	.	2r	4ccc\	4A\
4G\	.	4G\	.	.	.	.	4bb-\	4G\
4F\	.	4F\	.	2c\	1f\	2.a/	4aa\	4F\
!LO:TX:t=P:problem:kreska pseudotaktowa	!	!LO:TX:t=P:problem:kreska pseudotaktowa	!	!	!	!	!	!
4E-X\	.	4E-X\	.	.	.	.	4gg\	4E-X\
*	*	*	*	*	*	*	*custos:ff	*
!	!	!	!	!	!	!	!LO:LB:g=original	!
=28-	=28-	=28-	=28-	=28-	=28-	=28-	=28-	=28-
4D/	.	4D/	.	1.d	.	.	4ff\	4D/
4C/	.	4C/	.	.	.	4a/	4eeny\	4C/
!	!	!	!	!	!LO:TX:t=P:problem:kreska pseudotaktowa	!	!	!
4BB-/	.	4BB-/	.	.	1g	4b-/	4dd\	4BB-/
4AA/	.	4AA/	.	.	.	4cc\	4cc\	4AA/
2GG/	.	2GG/	.	.	.	2.dd\	2b-/	2GG/
!LO:TX:t=P:problem:kreska pseudotaktowa	!	!LO:TX:t=P:problem:kreska pseudotaktowa	!	!	!	!LO:TX:t=P:problem:kreska pseudotaktowa	!	!LO:TX:t=P:problem:kreska pseudotaktowa
*	*	*	*	*	*Xcol	*	*	*
=29-	=29-	=29-	=29-	=29-	=29-	=29-	=29-	=29-
2FF/	6	2FF/	6	1d	2a\	.	4a/	2FF/
.	.	.	.	.	.	4dd\	4f/	.
2GG/	6 5	2GG/	6 5	.	2b-\	2.eeny\	2.e/	2GG/
!LO:TX:t=P:problem:kreska pseudotaktowa	!	!LO:TX:t=P:problem:kreska pseudotaktowa	!	!	!	!	!	!
2AA/	#	2AA/	#	2c#X\	2a\	.	.	2AA/
.	.	.	.	.	.	4a/	4e/	.
*	*	*	*	*	*	*custos:f	*	*
!	!	!	!	!	!	!LO:LB:g=original	!	!
=30-	=30-	=30-	=30-	=30-	=30-	=30-	=30-	=30-
2D/	.	2D/	.	2d\	2a\	4f/	2d/	4D/
.	.	.	.	.	.	4f/	.	4D/
4E-X\	.	4E-X\	.	2r	2r	4g/	2r	4E-X\
4F\	.	4F\	.	.	.	4a/	.	4F\
!	!	!	!	!LO:TX:t=P:problem:kreska pseudotaktowa	!LO:TX:t=P:problem:kreska pseudotaktowa	!	!LO:TX:t=P:problem:kreska pseudotaktowa	!
4G\	.	4G\	.	2r	2r	4b-/	2r	4G\
!LO:TX:t=P:problem:kreska pseudotaktowa	!	!LO:TX:t=P:problem:kreska pseudotaktowa	!	!	!	!LO:TX:t=P:problem:kreska pseudotaktowa	!	!LO:TX:t=P:problem:kreska pseudotaktowa
4F\	.	4F\	.	.	.	4a/	.	4F\
=31-	=31-	=31-	=31-	=31-	=31-	=31-	=31-	=31-
1.E-X	5:6	1.E-X	5:6	1.r	1.r	4g/	4b-/	1E-X
.	.	.	.	.	.	4g/	4b-/	.
.	.	.	.	.	.	4a/	4cc\	.
.	.	.	.	.	.	4b-/	4dd\	.
.	.	.	.	.	.	4cc\	4ee-X\	2E-\
.	.	.	.	.	.	4b-/	4dd\	.
=32-	=32-	=32-	=32-	=32-	=32-	=32-	=32-	=32-
1.F	5:6	1.F	5:6	4A/	4c/	1a	2cc\	1F
.	.	.	.	4A/	4c/	.	.	.
.	.	.	.	4B-\	4d\	.	2r	.
.	.	.	.	4cny\	4e\	.	.	.
!	!	!	!	!	!	!	!LO:TX:t=P:problem:kreska pseudotaktowa	!
.	.	.	.	4d\	4f\	2a/	2r	2F\
.	.	.	.	4c\	4e\	.	.	.
=33-	=33-	=33-	=33-	=33-	=33-	=33-	=33-	=33-
2G\	.	2G\	.	2B-\	2d\	4b-/	1.r	4G\
.	.	.	.	.	.	4b-/	.	4G\
4A\	.	4A\	.	2r	2r	4cc\	.	4A\
4B-\	.	4B-\	.	.	.	4dd\	.	4B-\
!	!	!	!	!	!LO:TX:t=P:problem:kreska pseudotaktowa	!	!	!
4c\	-	4c\	-	2r	2r	4ee-X\	.	4c\
!	!	!	!	!	!	!LO:TX:t=P:problem:kreska pseudotaktowa	!	!
4B-\	.	4B-\	.	.	.	4dd\	.	4B-\
*custos:A	*	*custos:A	*	*	*	*	*	*custos:A
!LO:LB:g=original	!	!LO:LB:g=original	!	!	!	!	!	!LO:LB:g=original
=34-	=34-	=34-	=34-	=34-	=34-	=34-	=34-	=34-
4A\	.	4A\	.	2r	2r	4cc\	2r	4A\
4G\	.	4G\	.	.	.	4b-/	.	4G\
4F\	.	4F\	.	2A/	2f\	4a/	4cc\	4F\
4Eny\	6	4Eny\	6	.	.	4g/	4cc\	4Eny\
4D/	.	4D/	.	4B-\	2f\	2f/	4dd\	4D/
!	!	!	!	!LO:TX:t=P:problem:kreska pseudotaktowa	!	!	!LO:TX:t=P:problem:kreska pseudotaktowa	!
4C/	.	4C/	.	4c\	.	.	4eeny\	4C/
=35-	=35-	=35-	=35-	=35-	=35-	=35-	=35-	=35-
1.BB-	.	1.BB-	.	4d\	1.f	1.b-	4ff\	1BB-
.	.	.	.	4e-X\	.	.	4ee-X\	.
.	.	.	.	4f\	.	.	4dd\	.
.	.	.	.	4e-\	.	.	4cc\	.
.	.	.	.	2d\	.	.	2b-/	2BB-/
*	*	*	*	*	*custos:f	*	*	*
!	!	!	!	!	!LO:LB:g=original	!	!	!
=36-	=36-	=36-	=36-	=36-	=36-	=36-	=36-	=36-
2FF/	.	2FF/	.	2c\	1f	2cc\	2a/	2FF/
*col	*	*col	*	*col	*	*col	*	*col
!LO:TX:t=P:problem:kreska pseudotaktowa	!	!LO:TX:t=P:problem:kreska pseudotaktowa	!	!	!	!	!	!
1C	4:3	1C	4:3	1c	.	1cc	2.g/	1C
.	.	.	.	.	2e\	.	.	.
!	!	!	!	!	!	!	!LO:TX:t=P:problem:kreska pseudotaktowa	!
.	.	.	.	.	.	.	4g/	.
*Xcol	*	*Xcol	*	*Xcol	*	*Xcol	*	*Xcol
=37-	=37-	=37-	=37-	=37-	=37-	=37-	=37-	=37-
1FF	.	1FF	.	1c	1f	1cc	1a	1FF
!	!	!	!	!	!	!LO:TX:t=P:problem:kreska pseudotaktowa	!	!LO:TX:t=P:problem:kreska pseudotaktowa
2F\	.	2F\	.	2B-\	2f\	2cc\	2aa\	2F\
*	*	*	*	*custos:d	*	*	*	*
!	!	!	!	!LO:LB:g=original	!	!	!	!
=38-	=38-	=38-	=38-	=38-	=38-	=38-	=38-	=38-
2B-\	6	2B-\	6	2d\	2d\	2b-/	2gg\	2B-\
2r	.	2r	.	2r	2r	2r	2r	2r
!LO:TX:t=P:problem:kreska pseudotaktowa	!	!LO:TX:t=P:problem:kreska pseudotaktowa	!	!LO:TX:t=P:problem:kreska pseudotaktowa	!LO:TX:t=P:problem:kreska pseudotaktowa	!	!	!LO:TX:t=P:problem:kreska pseudotaktowa
2A\	6	2A\	6	2c\	2f\	2cc\	2ff\	2A\
*	*	*	*	*	*	*	*custos:ee-	*
!	!	!	!	!	!	!	!LO:LB:g=original	!
=39-	=39-	=39-	=39-	=39-	=39-	=39-	=39-	=39-
2G\	6	2G\	6	2e-X\	2g\	2b-/	2ee-X\	2G\
2r	.	2r	.	2r	2r	2r	2r	2r
!LO:TX:t=P:problem:kreska pseudotaktowa	!	!LO:TX:t=P:problem:kreska pseudotaktowa	!	!LO:TX:t=P:problem:kreska pseudotaktowa	!	!	!LO:TX:t=P:problem:kreska pseudotaktowa	!LO:TX:t=P:problem:kreska pseudotaktowa
2F\	6	2F\	6	2A/	2d\	2a/	2dd\	2F\
=40-	=40-	=40-	=40-	=40-	=40-	=40-	=40-	=40-
2E-X\	6	2E-X\	6	2c\	2e-X\	2g/	2cc\	2E-X\
2r	.	2r	.	2r	2r	2r	2r	2r
!LO:TX:t=P:problem:kreska pseudotaktowa	!	!LO:TX:t=P:problem:kreska pseudotaktowa	!	!LO:TX:t=P:problem:kreska pseudotaktowa	!	!	!	!LO:TX:t=P:problem:kreska pseudotaktowa
2D/	6	2D/	6	2d\	2f\	2f/	2b-/	2D/
=41-	=41-	=41-	=41-	=41-	=41-	=41-	=41-	=41-
2C/	-	2C/	-	2G/	2e-X\	2g/	2cc\	2C/
*col	*	*col	*	*	*col	*col	*col	*col
1BB-	.	1BB-	.	2D/	1f	1b-	1dd	1BB-
.	.	.	.	2B-\	.	.	.	.
*Xcol	*	*Xcol	*	*	*Xcol	*Xcol	*Xcol	*Xcol
*	*	*	*	*	*	*custos:b-	*	*
!	!	!	!	!	!	!LO:LB:g=original	!	!
=42-	=42-	=42-	=42-	=42-	=42-	=42-	=42-	=42-
1.FF	4:3	1.FF	4:3	1.c	1.f	1b-	1.cc	1.FF
.	.	.	.	.	.	2a/	.	.
=43-	=43-	=43-	=43-	=43-	=43-	=43-	=43-	=43-
1.BB-	.	1.BB-	.	1.d	1.f	1.b-	1.b-	1.BB-
=44:|!|:-	=44:|!|:-	=44:|!|:-	=44:|!|:-	=44:|!|:-	=44:|!|:-	=44:|!|:-	=44:|!|:-	=44:|!|:-
2B-\	.	2B-\	.	4r	00.r	2dd\	1.r	2B-\
.	.	.	.	4B-\	.	.	.	.
2.C/	-	2.C/	-	4e-X\	.	2.e-X/	.	2.C/
.	.	.	.	4d\	.	.	.	.
.	.	.	.	4c\	.	.	.	.
4D/	.	4D/	.	8B-\	.	4f/	.	4D/
!	!	!	!	!LO:TX:t=P:problem:kreska pseudotaktowa	!	!	!	!
.	.	.	.	8A\	.	.	.	.
=45-	=45-	=45-	=45-	=45-	=45-	=45-	=45-	=45-
2E-X\	.	2E-X\	.	2G/	.	4g/	2gg\	2E-X\
.	.	.	.	.	.	4gg\	.	.
*	*	*	*	*col	*	*	*	*
2.FF/	.	2.FF/	.	1F	.	4aa\	2.a/	2.FF/
.	.	.	.	.	.	4gg\	.	.
.	.	.	.	.	.	4ff\	.	.
!LO:TX:t=P:problem:kreska pseudotaktowa	!	!LO:TX:t=P:problem:kreska pseudotaktowa	!	!	!	!	!	!
4GG/	.	4GG/	.	.	.	8eeny\	4b-/	4GG/
!	!	!	!	!	!	!LO:TX:t=P:problem:kreska pseudotaktowa	!	!
.	.	.	.	.	.	8dd\	.	.
*	*	*	*	*Xcol	*	*	*	*
=46-	=46-	=46-	=46-	=46-	=46-	=46-	=46-	=46-
2AA-X/	6	2AA-X/	6	2F/	.	2cc\	2cc\	2AA-X/
*	*	*	*	*	*	*	*	*col
1GG	.	1GG	.	4G/	.	2.b-/	2.d/	1GG
.	.	.	.	4B-\	.	.	.	.
.	.	.	.	4d\	.	.	.	.
!	!	!	!	!LO:TX:t=P:problem:kreska pseudotaktowa	!	!	!	!
.	.	.	.	4c\	.	4cc\	4e/	.
*	*	*	*	*	*	*	*	*Xcol
=47-	=47-	=47-	=47-	=47-	=47-	=47-	=47-	=47-
2D/	.	2D/	.	4B-\	.	2.dd\	2f/	2D/
.	.	.	.	8B-\	.	.	.	.
.	.	.	.	8A\	.	.	.	.
*col	*	*col	*	*	*	*	*col	*col
1E-X	7:6	1E-X	7:6	2.G/	.	.	1g	1E-X
.	.	.	.	.	.	4dd\	.	.
.	.	.	.	.	.	2cc\	.	.
!	!	!	!	!LO:TX:t=P:problem:kreska pseudotaktowa	!	!	!	!
.	.	.	.	4G/	.	.	.	.
*Xcol	*	*Xcol	*	*	*	*	*Xcol	*Xcol
*custos:D	*	*custos:D	*	*	*	*	*	*custos:D
!LO:LB:g=original	!	!LO:LB:g=original	!	!	!	!	!	!LO:LB:g=original
=48-	=48-	=48-	=48-	=48-	=48-	=48-	=48-	=48-
2D/	.	2D/	.	4F/	0.r	2dd\	2a/	4D/
.	.	.	.	4F/	.	.	.	4D/
4G\	.	4G\	.	4B-\	.	2r	2r	4G\
*	*	*	*	*custos:A	*	*	*	*
!	!	!	!	!LO:LB:g=original	!	!	!	!
4F\	.	4F\	.	4A/	.	.	.	4F\
4E-X\	.	4E-X\	.	4G/	.	2r	2r	4E-X\
8D/	.	8D/	.	8F/	.	.	.	8D/
!	!	!	!	!LO:TX:t=P:problem:kreska pseudotaktowa	!	!	!	!LO:TX:t=P:problem:kreska pseudotaktowa
8C/	.	8C/	.	8Eny/	.	.	.	8C/
=49-	=49-	=49-	=49-	=49-	=49-	=49-	=49-	=49-
4BB-/	.	4BB-/	.	4D/	.	0.r	1.r	4BB-/
4F\	.	4F\	.	4A/	.	.	.	4F\
4B-\	.	4B-\	.	4d\	.	.	.	4B-\
4A\	.	4A\	.	4c\	.	.	.	4A\
4G\	.	4G\	.	4B-\	.	.	.	4G\
8F\	.	8F\	.	8A/	.	.	.	8F\
!LO:TX:t=P:problem:kreska pseudotaktowa	!	!LO:TX:t=P:problem:kreska pseudotaktowa	!	!	!	!	!	!
8E-X\	.	8E-X\	.	8G/	.	.	.	8E-X\
=50-	=50-	=50-	=50-	=50-	=50-	=50-	=50-	=50-
2D/	.	2D/	.	4F/	2f\	.	4r	2D/
.	.	.	.	4F/	.	.	4dd\	.
2.EE-X/	.	2.EE-X/	.	4B-\	2.G/	.	4gg\	2.EE-X/
.	.	.	.	4A/	.	.	4ff\	.
.	.	.	.	4G/	.	.	4ee-X\	.
4FF/	.	4FF/	.	8F/	4A/	.	8dd\	4FF/
.	.	.	.	8E/	.	.	8cc\	.
=51-	=51-	=51-	=51-	=51-	=51-	=51-	=51-	=51-
1GG	.	1GG	.	2D/	4B-/	1.r	4b-/	1GG
.	.	.	.	.	4d\	.	4b-/	.
!	!	!	!	!LO:TX:t=P:problem:kreska pseudotaktowa	!	!	!	!
.	.	.	.	1r	4g\	.	4ee-X\	.
.	.	.	.	.	4f\	.	4dd\	.
!LO:TX:t=P:problem:kreska pseudotaktowa	!	!LO:TX:t=P:problem:kreska pseudotaktowa	!	!	!	!	!	!LO:TX:t=P:problem:kreska pseudotaktowa
2AAny/	.	2AAny/	.	.	4e-X\	.	4cc\	2AAny/
.	.	.	.	.	8d\	.	8b-/	.
.	.	.	.	.	8c/	.	8a/	.
*	*	*	*	*	*	*	*custos:dd	*
!	!	!	!	!	!	!	!LO:LB:g=original	!
=52-	=52-	=52-	=52-	=52-	=52-	=52-	=52-	=52-
2BB-/	.	2BB-/	.	2f\	1B-	4r	2dd\	4BB-/
.	.	.	.	.	.	4dd\	.	4BB-/
4E-X\	.	4E-X\	.	2.G/	.	4gg\	2b-/	4E-X\
4D/	.	4D/	.	.	.	4ff\	.	4D/
4C/	-	4C/	-	.	2r	4ee-X\	2cc\	4C/
8BB-/	.	8BB-/	.	4A/	.	8dd\	.	8BB-/
!	!	!	!	!	!	!	!	!LO:TX:t=P:problem:kreska pseudotaktowa
8AA/	.	8AA/	.	.	.	8cc\	.	8AA/
=53-	=53-	=53-	=53-	=53-	=53-	=53-	=53-	=53-
4GG/	.	4GG/	.	4B-\	1.r	2b-/	2dd\	4GG/
4G\	.	4G\	.	4B-\	.	.	.	4G\
*	*	*	*	*	*	*	*col	*
4c\	-	4c\	-	4e-X\	.	2r	1cc	4c\
4A\	.	4A\	.	4c\	.	.	.	4A\
!	!	!	!	!	!	!LO:TX:t=P:problem:kreska pseudotaktowa	!	!
4F\	.	4F\	.	4A/	.	2r	.	4F\
8Eny\	.	8Eny\	.	4B-\	.	.	.	8Eny\
!LO:TX:t=P:problem:kreska pseudotaktowa	!	!LO:TX:t=P:problem:kreska pseudotaktowa	!	!	!	!	!	!
8D/	.	8D/	.	.	.	.	.	8D\
*	*	*	*	*	*	*	*Xcol	*custos:C
!	!	!	!	!	!	!	!	!LO:LB:g=original
=54-	=54-	=54-	=54-	=54-	=54-	=54-	=54-	=54-
2C/	.	2C/	.	1c	4r	2gg\	1cc	4C/
.	.	.	.	.	4eny\	.	.	4C/
4F\	.	4F\	.	.	4a\	2.a/	.	4F\
4E\	.	4E\	.	.	4g\	.	.	4E\
*	*	*	*	*	*custos:f	*	*	*
!	!	!	!	!LO:TX:t=P:problem:kreska pseudotaktowa	!LO:LB:g=original	!	!	!
4D/	.	4D/	.	2r	4f\	.	2r	4D\
8C/	.	8C/	.	.	8e\	4b-/	.	8C/
!	!	!	!	!	!	!	!	!LO:TX:t=P:problem:kreska pseudotaktowa
8BB-/	.	8BB-/	.	.	8d\	.	.	8BB-/
*custos:AA	*	*custos:AA	*	*	*	*custos:cc	*	*
!LO:LB:g=original	!	!LO:LB:g=original	!	!	!	!LO:LB:g=original	!	!
=55-	=55-	=55-	=55-	=55-	=55-	=55-	=55-	=55-
!	!	!	!	!	!	!	!LO:TX:t=P:problem:kreska pseudotaktowa	!
4AA/	.	4AA/	.	1.r	4c/	2cc\	1.r	4AA/
4A\	.	4A\	.	.	4c/	.	.	4A\
4d\	.	4d\	.	.	4f\	2.d/	.	4d\
4c\	.	4c\	.	.	4e\	.	.	4c\
4B-\	.	4B-\	.	.	4d\	.	.	4B-\
!	!	!	!	!	!	!LO:TX:t=P:problem:kreska pseudotaktowa	!	!
8A\	.	8A\	.	.	8c/	4eny/	.	8A\
!LO:TX:t=P:problem:kreska pseudotaktowa	!	!LO:TX:t=P:problem:kreska pseudotaktowa	!	!	!	!	!	!
8G\	.	8G\	.	.	8B-/	.	.	8G\
=56-	=56-	=56-	=56-	=56-	=56-	=56-	=56-	=56-
2F\	.	2F\	.	4r	2A/	4f/	2aa\	2F\
.	.	.	.	4F/	.	4a/	.	.
2.GG/	.	2.GG/	.	4B-\	2r	4dd\	2.b-/	2.GG/
.	.	.	.	4A/	.	4cc\	.	.
!	!	!	!	!	!LO:TX:t=P:problem:kreska pseudotaktowa	!	!	!
.	.	.	.	4G/	2r	4b-\	.	.
!	!	!	!	!	!	!	!	!LO:TX:t=P:problem:kreska pseudotaktowa
4AA/	.	4AA/	.	8F/	.	8a/	4cc\	4AA/
.	.	.	.	8E/	.	8g/	.	.
=57-	=57-	=57-	=57-	=57-	=57-	=57-	=57-	=57-
2BB-/	.	2BB-/	.	2D/	1.r	1f	4dd\	4BB-/
.	.	.	.	.	.	.	4b-/	4BB-/
4B-\	.	4B-\	.	2r	.	.	4dd\	4B-\
4A\	.	4A\	.	.	.	.	4cc\	4A\
4G\	.	4G\	.	2r	.	2g/	4b-/	4G\
8F\	.	8F\	.	.	.	.	8a/	8F\
!LO:TX:t=P:problem:kreska pseudotaktowa	!	!LO:TX:t=P:problem:kreska pseudotaktowa	!	!	!	!	!	!
8E\	.	8E\	.	.	.	.	8g/	8E\
=58-	=58-	=58-	=58-	=58-	=58-	=58-	=58-	=58-
2D/	.	2D/	.	4r	4r	1a	1f	2D/
.	.	.	.	4A/	4F/	.	.	.
*	*	*	*	*custos:d	*	*	*	*
!	!	!	!	!LO:LB:g=original	!	!	!	!
2.D/	.	2.D/	.	4d\	4f\	.	.	2.D/
.	.	.	.	4c\	4e\	.	.	.
!	!	!	!	!	!	!	!LO:TX:t=P:problem:kreska pseudotaktowa	!
.	.	.	.	4B-\	4d\	2r	2r	.
4E\	.	4E\	.	8A/	8c/	.	.	4E\
!	!	!	!	!LO:TX:t=P:problem:kreska pseudotaktowa	!	!	!	!
.	.	.	.	8G/	8B-/	.	.	.
=59-	=59-	=59-	=59-	=59-	=59-	=59-	=59-	=59-
2.F\	.	2.F\	.	2.F/	2.A/	1.r	4r	4F\
.	.	.	.	.	.	.	4a/	4FF/
.	.	.	.	.	.	.	4aa\	4F\
4E\	.	4E\	.	4G/	4c/	.	4gg\	4E\
4D/	.	4D/	.	4A/	4d\	.	4ff\	4D/
8C/	.	8C/	.	4B-\	4e\	.	8eeny\	8C/
8BB-/	.	8BB-/	.	.	.	.	8dd\	8BB-/
=60-	=60-	=60-	=60-	=60-	=60-	=60-	=60-	=60-
2AA/	6	2AA/	6	4c\	2.f\	4r	2cc\	2AA/
.	.	.	.	4A/	.	4ff\	.	.
*	*	*	*	*	*	*	*col	*
2.AA/	6	2.AA/	6	4c\	.	4aa\	1ff	2.AA/
.	.	.	.	4B-\	4g\	4gg\	.	.
.	.	.	.	4A/	2a\	4ff\	.	.
4BB-/	.	4BB-/	.	8G/	.	8eeny\	.	4BB-/
!	!	!	!	!LO:TX:t=P:problem:kreska pseudotaktowa	!	!	!	!
.	.	.	.	8F/	.	8dd\	.	.
*	*	*	*	*	*	*	*Xcol	*
=61-	=61-	=61-	=61-	=61-	=61-	=61-	=61-	=61-
1.C	.	1.C	.	1.c	1.g	4cc\	1ff	1.C
.	.	.	.	.	.	4b-/	.	.
*	*	*	*	*	*	*col	*	*
.	.	.	.	.	.	1cc	.	.
.	.	.	.	.	.	.	2ee\	.
*	*	*	*	*	*	*Xcol	*	*
=62-	=62-	=62-	=62-	=62-	=62-	=62-	=62-	=62-
!LO:TX:t=P:problem:kreska pseudotaktowa	!	!LO:TX:t=P:problem:kreska pseudotaktowa	!	!	!	!	!	!
1.FF	.	1.FF	.	1.c	1.f	1.cc	1.ff	1.FF
*	*	*	*	*	*	*	*	*custos:c
!	!	!	!	!	!	!	!	!LO:LB:g=original
=63-	=63-	=63-	=63-	=63-	=63-	=63-	=63-	=63-
2c\	-	2c\	-	2e-X\	1.r	4r	4r	2c\
.	.	.	.	.	.	4g/	4cc\	.
2.D/	.	2.D/	.	2.F/	.	4dd\	4ff\	2.D/
.	.	.	.	.	.	4cc\	4ee-X\	.
.	.	.	.	.	.	4b-/	4dd\	.
4E\	.	4E\	.	4G/	.	8a/	8cc\	4E\
.	.	.	.	.	.	8g/	8b-/	.
*	*	*	*	*	*	*	*custos:a	*
!	!	!	!	!	!	!	!LO:LB:g=original	!
=64-	=64-	=64-	=64-	=64-	=64-	=64-	=64-	=64-
2F\	.	2F\	.	2A/	2a\	4f/	4a/	2F\
.	.	.	.	.	.	4ff\	4a/	.
2.GG/	.	2.GG/	.	2r	2.B-/	4bb-\	4dd\	2.GG/
.	.	.	.	.	.	4aa\	4cc\	.
!	!	!	!	!LO:TX:t=P:problem:kreska pseudotaktowa	!	!	!	!
.	.	.	.	2r	.	4gg\	4b-/	.
4AA/	.	4AA/	.	.	4c\	8ff\	8a/	4AA/
.	.	.	.	.	.	8ee\	8g/	.
=65-	=65-	=65-	=65-	=65-	=65-	=65-	=65-	=65-
2BB-/	.	2BB-/	.	4r	2d\	1dd	1f	4BB-/
.	.	.	.	4B-\	.	.	.	4BB-/
4B-\	.	4B-\	.	4d\	2.d\	.	.	4B-\
4A\	.	4A\	.	4c\	.	.	.	4A\
*custos:G	*	*custos:G	*	*	*	*	*	*
!LO:LB:g=original	!	!LO:LB:g=original	!	!	!	!	!LO:TX:t=P:problem:kreska pseudotaktowa	!
4G\	.	4G\	.	4B-\	.	2r	2r	4G\
8F\	.	8F\	.	8A/	4e\	.	.	8F\
!LO:TX:t=P:problem:kreska pseudotaktowa	!	!LO:TX:t=P:problem:kreska pseudotaktowa	!	!	!	!	!	!LO:TX:t=P:problem:kreska pseudotaktowa
8E\	.	8E\	.	8G/	.	.	.	8E\
*	*	*	*	*	*custos:f	*custos:a	*	*
!	!	!	!	!	!LO:LB:g=original	!LO:LB:g=original	!	!
=66-	=66-	=66-	=66-	=66-	=66-	=66-	=66-	=66-
2D/	.	2D/	.	4F/	4f\	1.r	1.r	2D/
.	.	.	.	4d\	4f\	.	.	.
2.D/	.	2.D/	.	4f\	4a\	.	.	2.D/
.	.	.	.	4eny\	4g\	.	.	.
.	.	.	.	4d\	4f\	.	.	.
4E\	.	4E\	.	8c\	8e\	.	.	4E\
.	.	.	.	8B-\	8d\	.	.	.
=67-	=67-	=67-	=67-	=67-	=67-	=67-	=67-	=67-
2F\	.	2F\	.	1A	1c	4r	4r	2F\
.	.	.	.	.	.	4a/	4ff\	.
2.FF/	.	2.FF/	.	.	.	4ff\	4aa\	2.FF/
.	.	.	.	.	.	4ee\	4gg\	.
!	!	!	!	!LO:TX:t=P:problem:kreska pseudotaktowa	!LO:TX:t=P:problem:kreska pseudotaktowa	!	!	!
.	.	.	.	2r	2r	4dd\	4ff\	.
!LO:TX:t=P:problem:kreska pseudotaktowa	!	!LO:TX:t=P:problem:kreska pseudotaktowa	!	!	!	!	!	!
4GG/	.	4GG/	.	.	.	8cc\	8eeny\	4GG/
!	!	!	!	!	!	!	!LO:TX:t=P:problem:kreska pseudotaktowa	!
.	.	.	.	.	.	8b-/	8dd\	.
*	*	*	*	*custos:E	*	*	*	*
!	!	!	!	!LO:LB:g=original	!	!	!	!
=68-	=68-	=68-	=68-	=68-	=68-	=68-	=68-	=68-
2AA/	.	2AA/	.	1.r	4r	2a/	4cc\	2AA/
.	.	.	.	.	4f\	.	4aa\	.
2.A\	.	2.A\	.	.	4a\	2r	4ccc\	2.A\
.	.	.	.	.	4g\	.	4bb-\	.
.	.	.	.	.	4f\	2r	4aa\	.
4B-\	.	4B-\	.	.	8e\	.	8gg\	4B-\
.	.	.	.	.	8d\	.	8ff\	.
=69-	=69-	=69-	=69-	=69-	=69-	=69-	=69-	=69-
4c\	.	4c\	.	4r	2c/	2gg\	2ee\	4c\
4C/	.	4C/	.	4E/	.	.	.	4C/
4F\	.	4F\	.	4A/	2c/	2.a/	2.ff\	4F\
4E\	.	4E\	.	4G/	.	.	.	4E\
4D/	.	4D/	.	4F/	2d\	.	.	4D/
8C/	.	8C/	.	8E/	.	4b-/	4gg\	8C/
!LO:TX:t=P:problem:kreska pseudotaktowa	!	!LO:TX:t=P:problem:kreska pseudotaktowa	!	!	!	!	!	!LO:TX:t=P:problem:kreska pseudotaktowa
8BB-/	.	8BB-/	.	8D/	.	.	.	8BB-/
=70-	=70-	=70-	=70-	=70-	=70-	=70-	=70-	=70-
4GG/	.	4GG/	.	4C/	2e\	2cc\	1aa	4GG/
4G\	.	4G\	.	4c\	.	.	.	4G\
!	!	!	!	!	!LO:TX:t=P:problem:kreska pseudotaktowa	!	!	!
*	*	*	*	*	*col	*	*	*
4d\	.	4d\	.	4f\	1f	2.d/	.	4d\
4c\	.	4c\	.	4e\	.	.	.	4c\
!	!	!	!	!	!	!	!LO:TX:t=P:problem:kreska pseudotaktowa	!
4B-\	.	4B-\	.	4d\	.	.	2r	4B-\
!	!	!	!	!	!	!LO:TX:t=P:problem:kreska pseudotaktowa	!	!
8A\	.	8A\	.	8c\	.	4e/	.	8A\
8G\	.	8G\	.	8B-\	.	.	.	8G\
*	*	*	*	*	*Xcol	*	*	*
=71-	=71-	=71-	=71-	=71-	=71-	=71-	=71-	=71-
2F\	.	2F\	.	2A/	2.f\	4f/	4r	2F\
.	.	.	.	.	.	4aa\	4ff\	.
2.FF/	.	2.FF/	.	2.A/	.	4ccc\	4aa\	2.FF/
.	.	.	.	.	4g\	4bb-\	4gg\	.
.	.	.	.	.	2a\	4aa\	4ff\	.
4GG/	.	4GG/	.	4B-\	.	8gg\	8ee\	4GG/
.	.	.	.	.	.	8ff\	8dd\	.
*	*	*	*	*	*	*	*	*custos:AA
!	!	!	!	!	!	!	!	!LO:LB:g=original
=72-	=72-	=72-	=72-	=72-	=72-	=72-	=72-	=72-
1AA	.	1AA	.	2c#X\	1a	4ee\	1cc#X	1AA
.	.	.	.	.	.	4ee\	.	.
*	*	*	*	*col	*	*	*	*
.	.	.	.	1A	.	4aa\	.	.
.	.	.	.	.	.	4gg\	.	.
2DD/	.	2DD/	.	.	2a\	4ff\	2dd\	2DD/
.	.	.	.	.	.	8ee\	.	.
.	.	.	.	.	.	8dd\	.	.
*	*	*	*	*Xcol	*	*	*	*
=73-	=73-	=73-	=73-	=73-	=73-	=73-	=73-	=73-
!	!	!	!	!	!LO:TX:t=P:problem:kreska pseudotaktowa	!LO:TX:t=P:problem:kreska pseudotaktowa	!	!LO:TX:t=P:problem:kreska pseudotaktowa
1.AA	#	1.AA	#	1.A	1.a	1.ee	1dd	1.AA
.	.	.	.	.	.	.	2cc#X\	.
*custos:D	*	*custos:D	*	*	*	*	*custos:dd	*
!LO:LB:g=original	!	!LO:LB:g=original	!	!	!	!	!LO:LB:g=original	!
=74-	=74-	=74-	=74-	=74-	=74-	=74-	=74-	=74-
2D/	.	2D/	.	2A/	4r	2ff\	4dd\	2D/
.	.	.	.	.	4f\	.	4dd\	.
2.EE-X/	4#r	2.EE-X/	4#r	2r	4b-\	2.g/	4gg\	2.EE-X/
.	.	.	.	.	4a\	.	4ff\	.
.	.	.	.	2r	4g\	.	4ee-X\	.
4FF/	.	4FF/	.	.	8f\	4a/	8dd\	4FF/
!	!	!	!	!	!LO:SIC:s=8e-\	!	!	!
.	.	.	.	.	8e\	.	8ccny\	.
=75-	=75-	=75-	=75-	=75-	=75-	=75-	=75-	=75-
2GG/	.	2GG/	.	4r	1d	4.b-/	2b-/	4GG/
.	.	.	.	4G/	.	.	.	4GG/
.	.	.	.	.	.	8cc\	.	.
4G\	.	4G\	.	4B-\	.	2.dd\	2.b-/	4G\
4F\	.	4F\	.	4A/	.	.	.	4F\
!	!	!	!	!	!LO:TX:t=P:problem:kreska pseudotaktowa	!	!	!
4E-X\	.	4E-X\	.	4G/	2r	.	.	4E-X\
!	!	!	!	!	!	!LO:SIC:s=4ee-\	!	!
8D/	.	8D/	.	8F/	.	4ee\	4cc\	8D/
!LO:TX:t=P:problem:kreska pseudotaktowa	!	!LO:TX:t=P:problem:kreska pseudotaktowa	!	!	!	!	!	!
8C/	.	8C/	.	8E-X/	.	.	.	8C/
*	*	*	*	*	*	*custos:ff	*	*
!	!	!	!	!	!	!LO:LB:g=original	!	!
=76-	=76-	=76-	=76-	=76-	=76-	=76-	=76-	=76-
2BB-/	.	2BB-/	.	2.D/	2d\	4ff\	4dd\	2BB-/
.	.	.	.	.	.	4b-/	4dd\	.
2.BB-/	.	2.BB-/	.	.	2d\	4dd\	4ff\	2.BB-/
.	.	.	.	4E-X/	.	4cc\	4ee-X\	.
.	.	.	.	2F/	2e-X\	4b-/	4dd\	.
4C/	.	4C/	.	.	.	8a/	8cc\	4C/
.	.	.	.	.	.	8g/	8b-/	.
=77-	=77-	=77-	=77-	=77-	=77-	=77-	=77-	=77-
2.D/	.	2.D/	.	1.F	1.f	4f/	1a	4D/
.	.	.	.	.	.	4f/	.	4F\
.	.	.	.	.	.	4ff\	.	4D/
4C/	.	4C/	.	.	.	4ee-X\	.	4C/
4BB-/	.	4BB-/	.	.	.	4dd\	2b-\	4BB-/
8AA/	.	8AA/	.	.	.	8cc\	.	8AA/
8GG/	.	8GG/	.	.	.	8b-/	.	8GG/
*	*	*	*	*	*custos:f	*	*	*
!	!	!	!	!	!LO:LB:g=original	!	!	!
=78-	=78-	=78-	=78-	=78-	=78-	=78-	=78-	=78-
1.FF	4:3	1.FF	4:3	1.F	1.f	1.cc	1b-	1.FF
.	.	.	.	.	.	.	2a/	.
=79-	=79-	=79-	=79-	=79-	=79-	=79-	=79-	=79-
1.BB-	.	1.BB-	.	1.F	1.d	1.b-	1.b-	1.BB-
=80:|!-	=80:|!-	=80:|!-	=80:|!-	=80:|!-;;	=80:|!-	=80:|!-	=80:|!-	=80:|!-
!LO:N:vis=0	!	!LO:N:vis=0	!	!	!LO:N:vis=0	!LO:N:vis=0	!LO:N:vis=0	!LO:N:vis=0
1.BB-;	.	1.BB-;	.	1.ryy	1.d;<	1.b-	1.b-;	1.BB-;<
==	==	==	==	==	==	==	==	==
*-	*-	*-	*-	*-	*-	*-	*-	*-
!!!system-decoration: s1[(s2,s3,s4,s5)]s6,s7
!!!RDF**kern: > = above
!!!RDF**kern: < = below
!!!ENC: Anastazja Marusiak
!!!END: 2022-11-14
!!!ENC: Natalia Wrzos
!!!END: 2022-12-03
